src/icons/ubuntu.svg

<?xml version="1.0" encoding="UTF-8"?>
<svg xmlns="http://www.w3.org/2000/svg" xmlns:xlink="http://www.w3.org/1999/xlink" width="32" height="32" viewBox="0 0 32 32" version="1.1">
<g id="surface1">
<path style=" stroke:none;fill-rule:nonzero;fill:rgb(86.666667%,28.235295%,7.843138%);fill-opacity:1;" d="M 32 16 C 32 24.835938 24.835938 32 16 32 C 7.164062 32 0 24.835938 0 16 C 0 7.164062 7.164062 0 16 0 C 24.835938 0 32 7.164062 32 16 Z M 32 16 "/>
<path style=" stroke:none;fill-rule:nonzero;fill:rgb(100%,100%,100%);fill-opacity:1;" d="M 5.121094 13.863281 C 3.941406 13.863281 2.984375 14.820312 2.984375 16 C 2.984375 17.183594 3.9375 18.136719 5.121094 18.136719 C 6.300781 18.136719 7.257812 17.179688 7.257812 16 C 7.257812 14.820312 6.300781 13.863281 5.121094 13.863281 Z M 20.371094 23.5625 C 19.351562 24.164062 19 25.460938 19.589844 26.480469 C 20.179688 27.503906 21.484375 27.851562 22.507812 27.261719 C 23.527344 26.671875 23.878906 25.367188 23.289062 24.347656 C 22.699219 23.324219 21.394531 22.976562 20.371094 23.5625 Z M 9.761719 16 C 9.757812 13.96875 10.75 12.0625 12.414062 10.894531 L 10.851562 8.28125 C 8.957031 9.546875 7.589844 11.464844 7.015625 13.675781 C 7.699219 14.222656 8.121094 15.058594 8.121094 16 C 8.121094 16.941406 7.6875 17.777344 7.015625 18.324219 C 7.585938 20.535156 8.953125 22.457031 10.851562 23.722656 L 12.414062 21.105469 C 10.75 19.9375 9.757812 18.03125 9.761719 16 Z M 16 9.761719 C 19.230469 9.761719 21.929688 12.226562 22.214844 15.445312 L 25.257812 15.402344 C 25.113281 13.125 24.132812 10.980469 22.503906 9.382812 C 21.660156 9.703125 20.71875 9.628906 19.9375 9.179688 C 19.15625 8.726562 18.621094 7.949219 18.480469 7.058594 C 17.671875 6.832031 16.839844 6.71875 16 6.71875 C 14.574219 6.71875 13.164062 7.046875 11.886719 7.679688 L 13.371094 10.339844 C 14.171875 9.96875 15.070312 9.761719 16 9.761719 Z M 16 22.238281 C 15.09375 22.242188 14.195312 22.042969 13.371094 21.660156 L 11.886719 24.320312 C 13.128906 24.933594 14.523438 25.28125 16 25.28125 C 16.839844 25.28125 17.671875 25.167969 18.480469 24.941406 C 18.625 24.050781 19.160156 23.273438 19.941406 22.824219 C 20.738281 22.355469 21.691406 22.308594 22.5 22.617188 C 24.128906 21.019531 25.113281 18.875 25.257812 16.597656 L 22.210938 16.554688 C 21.925781 19.769531 19.230469 22.238281 16 22.238281 Z M 20.371094 8.425781 C 21.394531 9.027344 22.699219 8.667969 23.289062 7.648438 C 23.878906 6.628906 23.527344 5.320312 22.507812 4.730469 C 21.488281 4.128906 20.179688 4.488281 19.589844 5.511719 C 19 6.535156 19.351562 7.839844 20.371094 8.429688 Z M 20.371094 8.425781 "/>
</g>
</svg>

<svg xmlns="http://www.w3.org/2000/svg" width="32" height="32" stroke="none" stroke-linecap="round" stroke-linejoin="round" fill="#fff" fill-rule="nonzero"><path d="M32 16c0 8.836-7.164 16-16 16S0 24.836 0 16 7.164 0 16 0s16 7.164 16 16z" fill="#dd4814"/><path d="M5.12 13.864a2.137 2.137 0 0 0-2.137 2.137c0 1.181.956 2.136 2.137 2.136A2.137 2.137 0 0 0 7.257 16c0-1.18-.957-2.136-2.137-2.136zm15.252 9.7c-1.022.6-1.372 1.896-.782 2.917s1.895 1.372 2.917.782a2.135 2.135 0 0 0 .782-2.917c-.59-1.022-1.896-1.37-2.917-.782zM9.76 16a6.23 6.23 0 0 1 2.653-5.105l-1.56-2.615c-1.8977 1.2664-3.2636 3.1861-3.838 5.394C7.7 14.224 8.12 15.06 8.12 16s-.432 1.776-1.106 2.326c.5733 2.2087 1.9395 4.1291 3.838 5.395l1.562-2.616A6.23 6.23 0 0 1 9.761 16zM16 9.76c3.2318.0002 5.9286 2.468 6.215 5.687l3.044-.045c-.145-2.2777-1.1269-4.4215-2.757-6.019a2.99 2.99 0 0 1-2.5648-.2047c-.7804-.4514-1.3155-1.2308-1.4562-2.1213-.808-.2236-1.6426-.337-2.481-.337a9.256 9.256 0 0 0-4.113.96l1.484 2.66c.8-.372 1.7-.58 2.628-.58zm0 12.48a6.229 6.229 0 0 1-2.628-.58l-1.484 2.66c1.24.614 2.636.96 4.113.96.8378-.0002 1.6717-.1139 2.479-.338a3 3 0 0 1 1.46-2.118c.8-.47 1.75-.514 2.56-.207a9.25 9.25 0 0 0 2.757-6.019l-3.045-.045c-.2863 3.2179-2.9814 5.6852-6.212 5.687zm4.372-13.813c1.022.6 2.328.24 2.917-.78s.2392-2.3261-.78-2.918c-1.02-.6-2.328-.24-2.918.783s-.24 2.327.782 2.917z"/></svg>
